public/images/icons/re-badges/badge-custom.svg

<svg width="67" height="56" viewBox="0 0 67 56" fill="none" xmlns="http://www.w3.org/2000/svg">
<g id="Group 3319">
<path id="Rectangle 975" d="M24.7588 21.3242C24.134 20.6994 23.1209 20.6994 22.4961 21.3242L1.80003 42.0203C0.792086 43.0282 1.50594 44.7516 2.93139 44.7516L11.5137 44.7516L11.5137 53.334C11.5137 54.7594 13.2372 55.4733 14.2451 54.4653L34.9411 33.7693C35.566 33.1445 35.566 32.1314 34.9411 31.5066L24.7588 21.3242Z" fill="#D0E9FF" stroke="#3F4951" stroke-width="1.6"/>
<path id="Rectangle 976" d="M42.1826 21.3242C42.8074 20.6994 43.8205 20.6994 44.4453 21.3242L65.1414 42.0203C66.1493 43.0282 65.4355 44.7516 64.01 44.7516L55.4277 44.7516L55.4277 53.334C55.4277 54.7594 53.7042 55.4733 52.6963 54.4653L32.0003 33.7693C31.3754 33.1445 31.3754 32.1314 32.0003 31.5066L42.1826 21.3242Z" fill="#D0E9FF" stroke="#3F4951" stroke-width="1.6"/>
<path id="Star 1" d="M37.2383 3.31124L36.682 3.88622L37.2383 3.31124L37.0327 3.11239C34.7842 0.937189 31.2158 0.937189 28.9673 3.11239L29.5235 3.68737L28.9673 3.11239L28.7617 3.31124C27.8306 4.21198 26.536 4.63264 25.2533 4.45121L24.9701 4.41115C21.8725 3.97301 18.9856 6.07048 18.445 9.15189L18.3956 9.43359L19.1836 9.57181L18.3956 9.43359C18.1718 10.7096 17.3717 11.8109 16.2273 12.4181L15.9746 12.5521C13.2111 14.0184 12.1084 17.4122 13.4823 20.2228L13.6079 20.4797C14.1768 21.6436 14.1768 23.0049 13.6079 24.1687L13.4823 24.4257C12.1084 27.2363 13.2111 30.6301 15.9746 32.0963L16.3496 31.3896L15.9746 32.0963L16.2273 32.2304C17.3717 32.8376 18.1718 33.9389 18.3956 35.2149L18.445 35.4965C18.9856 38.5779 21.8725 40.6754 24.9701 40.2373L25.2533 40.1972C26.536 40.0158 27.8306 40.4365 28.7617 41.3372L28.9673 41.536C31.2158 43.7113 34.7842 43.7113 37.0327 41.536L37.2383 41.3372C38.1694 40.4365 39.464 40.0158 40.7467 40.1972L41.0299 40.2373C44.1275 40.6754 47.0144 38.578 47.555 35.4966L47.6044 35.2148C47.8282 33.9389 48.6283 32.8376 49.7727 32.2304L50.0254 32.0963C52.7889 30.6301 53.8916 27.2363 52.5177 24.4257L52.3921 24.1687C51.8232 23.0049 51.8232 21.6436 52.3921 20.4797L52.5177 20.2228C53.8916 17.4122 52.7889 14.0184 50.0254 12.5521L49.7727 12.4181C48.6283 11.8109 47.8282 10.7096 47.6044 9.43359L47.555 9.15189C47.0144 6.07048 44.1275 3.97301 41.0299 4.41115L40.7467 4.45121C39.464 4.63264 38.1694 4.21198 37.2383 3.31124Z" fill="white" stroke="#3F4951" stroke-width="1.6"/>
<path id="Vector 8 (Stroke)" d="M29.7198 31.2111L30.1259 30.7695L29.7198 31.2111C30.2986 31.7435 31.2023 31.6946 31.7205 31.1031L43.8998 17.1989C44.4256 16.5986 44.344 15.6808 43.7204 15.1826L41.4045 13.3326C40.8197 12.8654 39.9708 12.9409 39.4776 13.504L30.4509 23.8091C30.3768 23.8936 30.2477 23.9006 30.165 23.8246L26.1945 20.1733C25.6438 19.6669 24.7922 19.683 24.261 20.2098L22.1723 22.2812C21.6053 22.8435 21.6227 23.7653 22.2105 24.3058L29.7198 31.2111Z" fill="#CBFFEF" stroke="#3F4951" stroke-width="1.2"/>
</g>
</svg>

<svg fill="none" viewBox="0 0 67 56"><path fill="#D0E9FF" stroke="#3F4951" stroke-width="1.6" d="M24.759 21.324a1.6 1.6 0 00-2.263 0L1.8 42.02c-1.008 1.008-.294 2.732 1.131 2.732h8.583v8.582c0 1.425 1.723 2.14 2.731 1.131L34.941 33.77a1.6 1.6 0 000-2.262L24.76 21.324z"/><path fill="#D0E9FF" stroke="#3F4951" stroke-width="1.6" d="M42.183 21.324a1.6 1.6 0 012.262 0L65.141 42.02c1.008 1.008.294 2.732-1.131 2.732h-8.582v8.582c0 1.425-1.724 2.14-2.732 1.131L32 33.77a1.6 1.6 0 010-2.262l10.183-10.183z"/><path fill="#fff" stroke="#3F4951" stroke-width="1.6" d="M37.238 3.311l-.556.575.556-.575-.205-.199a5.8 5.8 0 00-8.066 0l.556.575-.556-.575-.205.2a4.2 4.2 0 01-3.509 1.14l-.283-.04a5.8 5.8 0 00-6.525 4.74l-.05.282.789.138-.788-.138a4.2 4.2 0 01-2.169 2.984l-.252.134a5.8 5.8 0 00-2.493 7.67l.126.258a4.2 4.2 0 010 3.689l-.126.257a5.8 5.8 0 002.493 7.67l.375-.706-.375.706.252.134a4.2 4.2 0 012.169 2.985l.049.281a5.8 5.8 0 006.525 4.741l.283-.04a4.2 4.2 0 013.509 1.14l.205.199a5.8 5.8 0 008.066 0l.205-.199a4.2 4.2 0 013.509-1.14l.283.04a5.8 5.8 0 006.525-4.74l.05-.282a4.2 4.2 0 012.168-2.985l.252-.134a5.8 5.8 0 002.493-7.67l-.126-.257a4.2 4.2 0 010-3.69l.126-.256a5.8 5.8 0 00-2.493-7.67l-.252-.135a4.2 4.2 0 01-2.169-2.984l-.049-.282a5.8 5.8 0 00-6.525-4.74l-.283.04a4.2 4.2 0 01-3.509-1.14z"/><path fill="#CBFFEF" stroke="#3F4951" stroke-width="1.2" d="M29.72 31.211l.406-.441-.406.441a1.4 1.4 0 002-.108L43.9 17.2a1.4 1.4 0 00-.18-2.016l-2.316-1.85a1.4 1.4 0 00-1.926.171L30.45 23.809a.2.2 0 01-.286.016l-3.97-3.652a1.4 1.4 0 00-1.934.037l-2.089 2.071a1.4 1.4 0 00.038 2.025l7.51 6.905z"/></svg>
